X:1
T:Josephine's Waltz
M:3/4
L:1/4
R:waltz
K:Gmaj
DGA | Bdc | BAG | D2E | C3 | EGF | E2D | D3 |
DGA | Bdc | BAG | D2E | C3 | DFG |1 A3- | A3 :|2 A3- | ABc |:
dBd | g2f | e3 | d3 | ced | cBA | B>c B | ABc :|
BAG | FEF | G3 | CDC | B,DG | FEF | G3- | G3 |]
